X: 16
M:6/8
L:1/8
K:Am
c2A A^GA | E2A ABc | B2G GBc | dBG GAB |
c2A A^GA | E2A A2e | edc BAB | E2A A2:|
|:c|\


